X: 25838
T: Master McDermott's
R: reel
M: 4/4
K: Dmajor
|:DF F2 DEFA|dffe dBBd|AF F2 dF F2|BFAF EGFE|
DF F2 DEFA|dffe dBBd|AF F2 dF F2|EGFE D4:|
|:dffe dfaf|g2 bg affe|dBBA Bcde|fdgf e2 de|
f2 af g2 bg|affe dBBd|AF F2 dF F2|EGFE D4:|

